dist/img/footer/fb.svg

<svg width="11" height="23" viewBox="0 0 11 23" fill="none" xmlns="http://www.w3.org/2000/svg">
<path d="M7.31465 22.877V11.5579H10.5687L11 7.57409H7.31465L7.32013 5.58002C7.32013 4.54096 7.42078 3.98447 8.94268 3.98447H10.9772V0H7.72243C3.81291 0 2.43707 1.93247 2.43707 5.18276V7.5744H0V11.5586H2.43707V22.7165C3.3865 22.902 4.36804 23 5.37304 23C6.02227 23 6.67082 22.9589 7.31465 22.877Z" fill="white"/>
</svg>

<svg width="11" height="23" fill="none" xmlns="http://www.w3.org/2000/svg"><path d="M7.315 22.877v-11.32h3.254L11 7.575H7.315L7.32 5.58c0-1.039.1-1.596 1.623-1.596h2.034V0H7.722c-3.91 0-5.285 1.932-5.285 5.183v2.391H0v3.985h2.437v11.158a15.3 15.3 0 0 0 4.878.16Z" fill="#fff"/></svg>
